packages/assets/static/images/icons/p-rescription.svg

<svg width="24" height="24" viewBox="0 0 24 24" xmlns="http://www.w3.org/2000/svg">
<path d="M16.4351 17.625L18.5304 15.5306C18.6711 15.3899 18.7502 15.199 18.7502 15C18.7502 14.801 18.6711 14.6101 18.5304 14.4694C18.3897 14.3286 18.1988 14.2496 17.9998 14.2496C17.8008 14.2496 17.6099 14.3286 17.4692 14.4694L15.3748 16.5647L11.517 12.7059C12.741 12.5403 13.8565 11.9161 14.6381 10.9596C15.4197 10.0032 15.809 8.78564 15.7275 7.55314C15.6459 6.32063 15.0996 5.16503 14.1988 4.31986C13.298 3.47469 12.11 3.00296 10.8748 3H5.99979C5.80087 3 5.61011 3.07902 5.46946 3.21967C5.3288 3.36032 5.24979 3.55109 5.24979 3.75V18C5.24979 18.1989 5.3288 18.3897 5.46946 18.5303C5.61011 18.671 5.80087 18.75 5.99979 18.75C6.1987 18.75 6.38946 18.671 6.53012 18.5303C6.67077 18.3897 6.74979 18.1989 6.74979 18V12.75H9.43947L14.3145 17.625L12.2192 19.7194C12.0784 19.8601 11.9994 20.051 11.9994 20.25C11.9994 20.449 12.0784 20.6399 12.2192 20.7806C12.3599 20.9214 12.5508 21.0004 12.7498 21.0004C12.9488 21.0004 13.1397 20.9214 13.2804 20.7806L15.3748 18.6853L17.4692 20.7806C17.5388 20.8503 17.6216 20.9056 17.7126 20.9433C17.8037 20.981 17.9012 21.0004 17.9998 21.0004C18.0983 21.0004 18.1959 20.981 18.287 20.9433C18.378 20.9056 18.4607 20.8503 18.5304 20.7806C18.6001 20.7109 18.6554 20.6282 18.6931 20.5372C18.7308 20.4461 18.7502 20.3485 18.7502 20.25C18.7502 20.1515 18.7308 20.0539 18.6931 19.9628C18.6554 19.8718 18.6001 19.7891 18.5304 19.7194L16.4351 17.625ZM6.74979 4.5H10.8748C11.7699 4.5 12.6283 4.85558 13.2613 5.48851C13.8942 6.12145 14.2498 6.97989 14.2498 7.875C14.2498 8.77011 13.8942 9.62855 13.2613 10.2615C12.6283 10.8944 11.7699 11.25 10.8748 11.25H6.74979V4.5Z"/>
</svg>

<svg viewBox="0 0 24 24" xmlns="http://www.w3.org/2000/svg" aria-hidden="true" fill="currentColor"><path d="m16.435 17.625 2.095-2.094a.75.75 0 0 0-1.06-1.062l-2.095 2.096-3.858-3.86A4.875 4.875 0 0 0 10.875 3H6a.75.75 0 0 0-.75.75V18a.75.75 0 1 0 1.5 0v-5.25h2.69l4.875 4.875-2.096 2.094a.75.75 0 1 0 1.061 1.062l2.095-2.096 2.094 2.096a.75.75 0 1 0 1.061-1.062zM6.75 4.5h4.125a3.375 3.375 0 0 1 0 6.75H6.75z"/></svg>
